tools/download-figma-icons/icons/outlined-medium/hanover-region.svg

<svg width="24" height="24" viewBox="0 0 24 24" fill="none" xmlns="http://www.w3.org/2000/svg">
<path fill-rule="evenodd" clip-rule="evenodd" d="M8.71361 22.5001H11.7368L14.7442 20.0941L13.626 18.4164C13.4903 18.2131 13.4625 17.9566 13.5503 17.7302C13.638 17.5022 13.8315 17.3312 14.0685 17.2727L19.9206 15.8094L22.2988 14.026L21.0786 11.5855C21.0411 11.5098 21.0156 11.4273 21.0059 11.3433L20.2979 5.6839L14.172 1.60023L9.85433 3.45044L10.4851 6.60338C10.5421 6.88687 10.4311 7.17712 10.1993 7.35036L7.19939 9.60032C6.93314 9.80056 6.56715 9.80056 6.30015 9.60032L3.75021 7.68786L1.80025 9.15033L3.60021 11.5503C3.69771 11.68 3.75021 11.8375 3.75021 12.0003V16.1252L6.4494 18.1501C6.54315 18.2199 6.6189 18.3106 6.67065 18.4149L8.71361 22.5001ZM12 24.0001H8.25012C7.96587 24.0001 7.70638 23.8396 7.57888 23.5853L5.40842 19.2437L2.55023 17.1002C2.36124 16.9585 2.25024 16.7357 2.25024 16.5002V12.25L0.150282 9.45035C-0.0987132 9.11886 -0.0312146 8.64862 0.300279 8.40038L3.30022 6.15042C3.56721 5.95018 3.9332 5.95018 4.19945 6.15042L6.75015 8.06288L8.92135 6.43391L8.26437 3.14748C8.19537 2.79949 8.37911 2.4515 8.70461 2.31125L13.9545 0.0612949C14.1862 -0.0392031 14.454 -0.0152035 14.6662 0.126544L21.4161 4.62645C21.5976 4.7472 21.7168 4.94145 21.7438 5.15744L22.4781 11.0298L23.9203 13.915C24.0823 14.239 23.9893 14.6327 23.6991 14.8502L20.6991 17.1002C20.6196 17.1602 20.5289 17.2037 20.4314 17.2277L15.4642 18.4697L16.374 19.8339C16.5899 20.1579 16.5217 20.5929 16.2187 20.8359L12.4688 23.8358C12.3353 23.9423 12.1703 24.0001 12 24.0001Z" fill="black"/>
</svg>

<svg width="24" height="24" viewBox="0 0 24 24" fill="none" xmlns="http://www.w3.org/2000/svg"><path fill-rule="evenodd" clip-rule="evenodd" d="M8.714 22.5h3.023l3.007-2.406-1.118-1.678a.75.75 0 0 1 .443-1.143l5.852-1.464 2.378-1.783-1.22-2.44a.74.74 0 0 1-.073-.243l-.708-5.66L14.172 1.6 9.854 3.45l.631 3.153a.748.748 0 0 1-.286.747l-3 2.25c-.266.2-.632.2-.899 0L3.75 7.688 1.8 9.15l1.8 2.4c.098.13.15.287.15.45v4.125l2.7 2.025c.093.07.169.16.22.265L8.715 22.5ZM12 24H8.25a.75.75 0 0 1-.671-.415l-2.17-4.341L2.55 17.1a.75.75 0 0 1-.3-.6v-4.25l-2.1-2.8A.75.75 0 0 1 .3 8.4l3-2.25a.75.75 0 0 1 .9 0l2.55 1.913 2.171-1.63-.657-3.286a.751.751 0 0 1 .44-.836l5.25-2.25c.232-.1.5-.076.712.066l6.75 4.5c.182.12.3.314.328.53l.734 5.873 1.442 2.885a.75.75 0 0 1-.22.935l-3 2.25a.736.736 0 0 1-.269.128l-4.967 1.242.91 1.364a.751.751 0 0 1-.155 1.002l-3.75 3A.751.751 0 0 1 12 24Z" fill="currentColor"/></svg>
